X: 135
T:The Barren Rocks of Aden
K:D
M:4/4
L:1/8
R:Reel
e|"D"f>g f>e df Ad|"A"ce Ae "D"fAde|"D"f>g f>e df Ad|"A"ce Af/2e/2 "D"d3
 e|!
"D"f>g f>e df Ad|"A"ce Ae "D"fAde|"D"f>g f>e dfAd|"A"ce Af/2e/2 "D"d3 f/
2g/2|!
"D"a>f df "A"ef Ae/2f/2|"A7"g>e ce "D"df Af/2g/2|"D"a>f df "A"ef Ae/2f/2
|"A7"g>e ce "D"d3 f/2g/2|!
"D"a/2f/2d/2f/2 a/2f/2d/2f/2 "A"ef Ae/2f/2|"A7"g/2e/2c/2e/2 g/2e/2c/2e/2
"D"df Af/2g/2|"D"a/2f/2d/2f/2 a/2f/2d/2f/2 "A"ef Ae/2f/2|"A7"g/2e/2c/2A/
2 A/2e/2c/2a/2 "D"d3||
% <A name="D1X136">
